X:2329
T:Långbacka-Jans Gånglåt
S:Efter Bo Larsson
Z:[[http://www.bluerose.karenlmyers.org/IncipitsGanglat9.html|Karen Myers (#2329)]
Z:Upptecknad 5/2003
M:2/4
L:1/8
R:Gånglåt
K:G
G/B/d/ |: g2 g/f/g/a/ | gB ce | d2 d/e/d/B/ | G2 D/G/B/d/ | c>B cA | F2 D/F/A/c/ |
e>d dB | G2 D/G/B/d/ | g2 g/f/g/a/ | gB ce | d2 d/e/d/B/ |
G2 D/G/B/d/ | c>B cA | FD EF | G2 B>A |1 G2 D/G/B/d/ :|2 G2- GD ||
|: BB/B/ BB/B/ | BA GF | Ec/c/ cc/c/ | cB AG | Fd/d/ dd/e/ | dD EF |
G>A B/A/G/E/ | D2- DD | BB/B/ BB/B/ | BA GF | Ec/c/ cc/c/ |
cB AG | Fd/d/ dd/e/ | dD EF | G2 B>A | G2- GD :|
|: dB/d/ gd | B2 G2 | BG/B/ dB | G2 D2 | AD FA | cA FD | GD/G/ BG/B/ |
d2- dd | dB/d/ gd | B2 G2 | BG/B/ dB | G2 D2 |
AD FA | cA FD | G2 B>A |1 G2- Gd :|2 G4 |]
